static/icons/css.svg

<svg width="43" height="48" viewBox="0 0 43 48" fill="none" xmlns="http://www.w3.org/2000/svg">
<path d="M42.324 0L38.4681 43.195L21.1361 48L3.85174 43.2018L0 0H42.324Z" fill="#264DE4"/>
<path d="M35.1673 40.4433L38.4623 3.53125H21.1621V44.3261L35.1673 40.4433Z" fill="#2965F1"/>
<path d="M8.83008 19.5557L9.30497 24.8541H21.162V19.5557H8.83008Z" fill="#EBEBEB"/>
<path d="M21.1621 8.83105H21.1438H7.87598L8.35763 14.1296H21.1621V8.83105Z" fill="#EBEBEB"/>
<path d="M21.1618 38.8286V33.3159L21.1386 33.3221L15.2376 31.7287L14.8604 27.5029H11.993H9.5415L10.2838 35.8224L21.1374 38.8354L21.1618 38.8286Z" fill="#EBEBEB"/>
<path d="M27.6681 24.8538L27.0531 31.7256L21.1436 33.3206V38.8331L32.0058 35.8226L32.0855 34.9274L33.3306 20.9782L33.4599 19.5554L34.4164 8.83105H21.1436V14.1296H28.6097L28.1276 19.5554H21.1436V24.8538H27.6681Z" fill="#1E2235"/>
</svg>

<svg width="43" height="48" fill="none" xmlns="http://www.w3.org/2000/svg"><path d="m42.324 0-3.856 43.195L21.136 48 3.852 43.202 0 0h42.324Z" fill="#264DE4"/><path d="m35.167 40.443 3.295-36.912h-17.3v40.795l14.005-3.883Z" fill="#2965F1"/><path d="m8.83 19.556.475 5.298h11.857v-5.298H8.83ZM21.162 8.831H7.876l.482 5.299h12.804v-5.3Zm0 29.998v-5.513l-.023.006-5.901-1.593-.378-4.226H9.541l.743 8.32 10.853 3.012.025-.006Z" fill="#EBEBEB"/><path d="m27.668 24.854-.615 6.872-5.91 1.595v5.512l10.863-3.01.08-.896 1.245-13.949.129-1.423.956-10.724H21.144v5.299h7.466l-.482 5.425h-6.984v5.299h6.524Z" fill="#1E2235"/></svg>
